X:1
T:No Cross for Me?
T:No Cross for Me?
T:John Robson Sweney
T:Frances Jane (Fanny) Crosby, 1910
T:Public Domain Courtesy of the Cyber Hymnal™
T:Public Domain Courtesy of the Cyber Hymnal™
C:John Robson Sweney
Z:Public Domain
Z:Courtesy of the Cyber Hymnal™
%%score ( 1 2 ) ( 3 4 )
L:1/8
Q:1/4=100
M:4/4
K:F
V:1 treble 
V:2 treble 
V:3 bass 
V:4 bass 
V:1
 [FA]2 [FA]>[FA] [FA]3 C | [B,D]C[CF][FA] [FA]2 [EG]2 | [EB]2 [EB]>[EB] [EB]3 C | %3
w: 1.~No cross for me, O|bless- èd Lord and Sav- ior?|No cross for me, when|
w: 2.~No cross for me, when|Thou the King of glo- ry,|The Well- Be- loved, the|
w: 3.~No cross for me? shall|I on Pis- gah’s mount- ain|Con- tent a- bide, from|
w: 4.~“Take up the cross if|thou art My di- sci- ple!”|Deep in my soul I|
 C[CF][CF][CG] [FA]4 | [Fc]2 [Fc]>[Fc] [Fc]3 [FB] | [FA][FA][EG][DF] | %6
w: Thou Thine own didst bear,|At mid- night hour with-|in the gar- den|
w: Fa- ther’s on- ly Son,|Didst with Thy blood a-|tone for all trans-|
w: care and tri- al free?|Ah, no, but thro’ the|wil- der- ness of|
w: hear Thy words of love:|“Take up the cross, and|when the war is|
 [DF]2 [FB]2 [Fd]2 [Fd][Fd] [Fc]3 [EB] | [FA][DG][CF][CE] [CF]4 || %8
w: kneel- ing, While pi- tying stars be-|held Thy an- guish there?|
w: gress- ions? For Thou hast tast- ed|death for ev- ’ry one.|
w: sor- row, Tho’ pierced with thorns, my|feet shall fol- low Thee!|
w: o- ver, Home, rest, and crown, with|end- less joy a- bove!”|
"^Refrain" [EG]2 [EG]>[FA] [GB]3 [GB] | [FA][EG]F[EG] [FA]2 [Fc]2 | [Fd]2 [Fd][Fd] [Fc]2 [FA]2 | %11
w: |||
w: There is a cross, and|glad- ly I ac- cept it;|There is a war- fare|
w: |||
w: |||
 [FA][FA][FG]F (G2 c2) | [Fc]2 [Fc]>[Fc] [Fc]3 [FB] | [FA][FA][EG][DF] | %14
w: |||
w: with a host of sin; *|But Thou has oped the|gate of life e-|
w: |||
w: |||
 [DF]2 [FB]2 [Fd]2 [Fd][Fd] [Fc]3 [EB] | [FA][DG][CF][CE] [CF]4 |] %16
w: ||
w: ter- nal, And Thou wilt let Thine|own dear child- ren in.|
w: ||
w: ||
V:2
 x7 C | x C x6 | x7 C | C x7 | x8 | x4 | x12 | x8 || x8 | x2 F x5 | x8 | x3 F E4 | x8 | x4 | x12 | %15
 x8 |] %16
V:3
 [F,C]2 [F,C]>[F,C] [F,C]3 [F,A,] | [F,B,][F,A,][F,A,][F,C] [C,C]2 [C,C]2 | %2
 [C,G,]2 [C,G,]>[C,G,] [C,G,]3 [E,B,] | [G,B,][F,A,][F,A,][F,B,] [F,C]4 | %4
 [F,A,]2 [F,A,]>[F,A,] [F,A,]3 [F,D] | [F,C][F,C][C,B,][D,A,] | %6
 [B,,B,]2 [B,,D]2 B,2 B,B, [A,C]3 [G,C] | [F,C][B,,B,][C,A,][C,G,] [F,A,]4 || %8
 [C,C]2 [C,C]>[C,C] [C,C]3 [C,C] | [F,C][C,C][A,,C][C,C] [F,C]2 [F,A,]2 | B,2 B,B, [A,C]2 [F,C]2 | %11
 [D,D][D,D][G,=B,][G,B,] (C2 _B,2) | [F,A,]2 [F,A,]>[F,A,] [F,A,]3 [F,D] | [F,C][F,C][C,B,][D,A,] | %14
 [B,,B,]2 [B,,D]2 B,2 B,B, [A,C]3 [G,C] | [F,C][B,,B,][C,A,][C,G,] [F,A,]4 |] %16
V:4
 x8 | x8 | x8 | x8 | x8 | x4 | x4 B,2 B,B, x4 | x8 || x8 | x8 | B,2 B,B, x4 | x4 C,4 | x8 | x4 | %14
 x4 B,2 B,B, x4 | x8 |] %16

